X:1
T:The Hallowed Spot
T:The Hallowed Spot
T:Arranged by Tullius Clinton O’Kane
T:William Hunter, 1843
T:Public Domain Courtesy of the Cyber Hymnal™
T:Public Domain Courtesy of the Cyber Hymnal™
C:Arranged by Tullius Clinton O’Kane
Z:Public Domain
Z:Courtesy of the Cyber Hymnal™
%%score ( 1 2 ) ( 3 4 )
L:1/8
Q:1/4=150
M:3/2
K:Ab
V:1 treble 
V:2 treble 
V:3 bass 
V:4 bass 
V:1
 [CE]2 | [CE]2 [DF]2 [EA]6 [CE]2 | [EA]2 [Ec]2 [EB]6 [CA]2 | [Ec]2 [EA]2 [FB]6 [FA]2 | %4
w: 1.~There|is a spot to|me more dear Than|na- tive vale or|
w: 2.~Hard|was my toil to|reach the shore, Long|tossed up- on the|
w: 3.~Sink-|ing and pant- ing|as for breath I|knew not help was|
w: 4.~O|sac- red hour! O|hal- lowed spot! Where|love di- vine first|
 [DF]2 [CE]6 z2 [CE]2 | [CE]2 [DF]2 [EA]6 [CE]2 | [EA]2 [Ec]2 [EB]6 [CA]2 | %7
w: moun- tain; A|spot for which af-|fec- tion’s tear Springs|
w: o- cean; A-|bove me was the|thun- der’s roar, Be-|
w: near me; I|cried, “Oh, save me,|Lord from death, Im-|
w: found me; Wher-|ev- er falls my|dis- tant lot, My|
 [Ec]2 [EA]2 [FB]6 [FA]2 | [DF]2 [CE]6 z2 E2 | [GB]2 [Ac]2 [Ge]6 [Gd]2 | [Ac]2 [GB]2 A6 [EA]2 | %11
w: grate- ful from its|foun- tain. ’Tis|not where kin- dred|souls a- bound, Though|
w: neath, the wave’s com-|mo- tion. Dark-|ly the pall of|night was thrown A-|
w: mor- tal Je- sus,|hear me.” Then|quick as thought I|felt Him mine, My|
w: heart shall lin- ger|round thee. And|when from earth I|rise, to soar Up|
 [GB]2 [Ac]2 [Ge]6 [EB]2 | [Ec]2 [EB]6 z2 E2 | [CE]2 [DF]2 [EA]6 [CE]2 | [EA]2 [Ec]2 [EB]6 [CA]2 | %15
w: that is al- most|hea- ven, But|where I first my|Sav- ior found, And|
w: round me faint with|ter- ror; In|that dark hour how|did my groan As-|
w: Sav- ior stood be-|fore me; I|saw His bright- ness|round me shine, And|
w: to my home in|hea- ven, Down|will I cast my|eyes once more, Where|
 [Ec]2 [EA]2 [FB]6 [FA]2 | [DF]2 [CE]6 z2 |] %17
w: felt my sins for-|giv- en.|
w: cend for years of|er- ror.|
w: shout- ed “Glo- ry,|Glo- ry.”|
w: I was first for-|giv- en.|
V:2
 x2 | x12 | x12 | x12 | x12 | x12 | x12 | x12 | x10 E2 | x12 | x4 A6 x2 | x12 | x10 (ED) | x12 | %14
 x12 | x12 | x10 |] %17
V:3
 [A,,A,]2 | [A,,A,]2 [A,,A,]2 [A,,C]6 [A,,A,]2 | [C,A,]2 [A,,A,]2 [E,G,]6 [A,,A,]2 | %3
 [A,,A,]2 [C,A,]2 [D,D]6 [D,A,]2 | [A,,A,]2 [A,,A,]6 z2 [A,,A,]2 | %5
 [A,,A,]2 [A,,A,]2 [A,,C]6 [A,,A,]2 | [C,A,]2 [A,,A,]2 [E,G,]6 [A,,A,]2 | %7
 [A,,A,]2 [C,A,]2 [D,D]6 [D,A,]2 | [A,,A,]2 [A,,A,]6 z2 E,2 | [E,D]2 [E,C]2 [E,B,]6 [G,B,]2 | %10
 [A,E]2 [E,D]2 [A,,C]6 [C,A,]2 | [E,D]2 [E,C]2 [E,B,]6 [E,G,]2 | [E,A,]2 [E,A,]6 z2 G,2 | %13
 [A,,A,]2 [A,,A,]2 [A,,C]6 [A,,A,]2 | [C,A,]2 [A,,A,]2 [E,G,]6 [A,,A,]2 | %15
 [A,,A,]2 [C,A,]2 [D,D]6 [D,A,]2 | [A,,A,]2 [A,,A,]6 z2 |] %17
V:4
 x2 | x12 | x12 | x12 | x12 | x12 | x12 | x12 | x10 E,2 | x12 | x12 | x12 | x10 (C,B,,) | x12 | %14
 x12 | x12 | x10 |] %17

